img/icon_instagram-black.svg

<svg width="45" height="46" viewBox="0 0 45 46" fill="none" xmlns="http://www.w3.org/2000/svg">
<path fill-rule="evenodd" clip-rule="evenodd" d="M22.5 0.75293C10.0736 0.75293 0 10.8265 0 23.2529C0 35.6793 10.0736 45.7529 22.5 45.7529C34.9264 45.7529 45 35.6793 45 23.2529C45 10.8265 34.9264 0.75293 22.5 0.75293ZM17.553 11.3254C18.8331 11.2671 19.2421 11.2529 22.5011 11.2529H22.4973C25.7574 11.2529 26.1649 11.2671 27.4449 11.3254C28.7224 11.3839 29.5949 11.5861 30.3599 11.8829C31.1499 12.1892 31.8174 12.5992 32.4849 13.2667C33.1525 13.9337 33.5625 14.6032 33.87 15.3924C34.165 16.1554 34.3675 17.0275 34.4275 18.305C34.485 19.585 34.5 19.994 34.5 23.253C34.5 26.5121 34.485 26.9201 34.4275 28.2001C34.3675 29.4771 34.165 30.3493 33.87 31.1126C33.5625 31.9016 33.1525 32.5711 32.4849 33.2381C31.8182 33.9056 31.1497 34.3166 30.3607 34.6231C29.5972 34.9199 28.7242 35.1221 27.4466 35.1806C26.1666 35.2389 25.7589 35.2531 22.4996 35.2531C19.2408 35.2531 18.8321 35.2389 17.552 35.1806C16.2748 35.1221 15.4025 34.9199 14.639 34.6231C13.8503 34.3166 13.1807 33.9056 12.514 33.2381C11.8467 32.5711 11.4367 31.9016 11.13 31.1124C10.8335 30.3493 10.6312 29.4773 10.5725 28.1998C10.5145 26.9198 10.5 26.5121 10.5 23.253C10.5 19.994 10.515 19.5847 10.5722 18.3047C10.6297 17.0277 10.8322 16.1554 11.1297 15.3922C11.4372 14.6032 11.8472 13.9337 12.5147 13.2667C13.1817 12.5994 13.8513 12.1894 14.6405 11.8829C15.4035 11.5861 16.2755 11.3839 17.553 11.3254Z" fill="#424242"/>
<path fill-rule="evenodd" clip-rule="evenodd" d="M21.4247 13.4155C21.6337 13.4151 21.8586 13.4152 22.1012 13.4154L22.5012 13.4155C25.7052 13.4155 26.085 13.427 27.3502 13.4845C28.5202 13.538 29.1552 13.7335 29.5783 13.8977C30.1383 14.1152 30.5375 14.3752 30.9573 14.7952C31.3773 15.2152 31.6373 15.6152 31.8553 16.1753C32.0195 16.5978 32.2153 17.2328 32.2685 18.4028C32.326 19.6678 32.3385 20.0478 32.3385 23.2503C32.3385 26.4529 32.326 26.8329 32.2685 28.0979C32.215 29.2679 32.0195 29.9029 31.8553 30.3254C31.6378 30.8854 31.3773 31.2842 30.9573 31.7039C30.5373 32.1239 30.1385 32.3839 29.5783 32.6014C29.1557 32.7664 28.5202 32.9614 27.3502 33.0149C26.0852 33.0724 25.7052 33.0849 22.5012 33.0849C19.2969 33.0849 18.9171 33.0724 17.6521 33.0149C16.4821 32.9609 15.8471 32.7654 15.4239 32.6012C14.8638 32.3837 14.4638 32.1237 14.0438 31.7037C13.6238 31.2837 13.3638 30.8847 13.1458 30.3244C12.9816 29.9019 12.7858 29.2669 12.7326 28.0969C12.6751 26.8319 12.6636 26.4519 12.6636 23.2473C12.6636 20.0428 12.6751 19.6648 12.7326 18.3998C12.7861 17.2298 12.9816 16.5948 13.1458 16.1718C13.3633 15.6117 13.6238 15.2117 14.0438 14.7917C14.4638 14.3717 14.8638 14.1117 15.4239 13.8937C15.8469 13.7287 16.4821 13.5337 17.6521 13.48C18.7591 13.43 19.1881 13.415 21.4247 13.4125V13.4155ZM28.9067 15.408C28.1117 15.408 27.4667 16.0523 27.4667 16.8475C27.4667 17.6425 28.1117 18.2875 28.9067 18.2875C29.7017 18.2875 30.3467 17.6425 30.3467 16.8475C30.3467 16.0525 29.7017 15.4075 28.9067 15.4075V15.408ZM16.3384 23.2533C16.3384 19.8501 19.0975 17.0908 22.5007 17.0907C25.904 17.0907 28.6625 19.85 28.6625 23.2533C28.6625 26.6565 25.9042 29.4146 22.5009 29.4146C19.0977 29.4146 16.3384 26.6565 16.3384 23.2533Z" fill="#424242"/>
<path d="M22.501 19.2531C24.71 19.2531 26.5011 21.0438 26.5011 23.2531C26.5011 25.4621 24.71 27.2531 22.501 27.2531C20.2917 27.2531 18.501 25.4621 18.501 23.2531C18.501 21.0438 20.2917 19.2531 22.501 19.2531Z" fill="#424242"/>
</svg>

<svg width="45" height="46" fill="none" xmlns="http://www.w3.org/2000/svg"><path fill-rule="evenodd" clip-rule="evenodd" d="M22.5.753C10.074.753 0 10.826 0 23.253c0 12.426 10.074 22.5 22.5 22.5S45 35.679 45 23.253C45 10.826 34.926.753 22.5.753zm-4.947 10.572c1.28-.058 1.69-.072 4.948-.072h-.004c3.26 0 3.668.014 4.948.072 1.277.059 2.15.261 2.915.558a5.86 5.86 0 012.125 1.384 5.889 5.889 0 011.385 2.125c.295.763.498 1.636.558 2.913.057 1.28.072 1.689.072 4.948 0 3.26-.015 3.667-.072 4.947-.06 1.277-.263 2.15-.558 2.913a5.89 5.89 0 01-1.385 2.125 5.87 5.87 0 01-2.124 1.385c-.764.297-1.637.5-2.914.558-1.28.058-1.688.072-4.947.072-3.26 0-3.668-.014-4.948-.072-1.277-.059-2.15-.261-2.913-.558a5.876 5.876 0 01-2.125-1.385 5.879 5.879 0 01-1.384-2.126c-.296-.763-.499-1.635-.558-2.912-.057-1.28-.072-1.688-.072-4.947 0-3.259.015-3.668.072-4.948.058-1.277.26-2.15.558-2.913a5.89 5.89 0 011.385-2.125 5.876 5.876 0 012.125-1.384c.763-.297 1.636-.5 2.913-.558z" fill="#424242"/><path fill-rule="evenodd" clip-rule="evenodd" d="M21.425 13.415H22.5c3.204 0 3.584.012 4.85.07 1.17.053 1.804.248 2.227.413.56.217.96.477 1.38.897.42.42.68.82.897 1.38.165.423.36 1.058.414 2.228.057 1.265.07 1.645.07 4.847 0 3.203-.013 3.583-.07 4.848-.054 1.17-.25 1.805-.414 2.227a3.71 3.71 0 01-.898 1.379c-.42.42-.819.68-1.379.897-.422.165-1.058.36-2.228.414-1.265.057-1.645.07-4.849.07s-3.584-.013-4.849-.07c-1.17-.054-1.805-.25-2.228-.414a3.716 3.716 0 01-1.38-.897 3.72 3.72 0 01-.898-1.38c-.164-.422-.36-1.057-.413-2.227-.058-1.265-.07-1.645-.07-4.85 0-3.204.012-3.582.07-4.847.053-1.17.249-1.805.413-2.228.217-.56.478-.96.898-1.38.42-.42.82-.68 1.38-.898.423-.165 1.058-.36 2.228-.414 1.107-.05 1.536-.065 3.773-.068v.003zm7.482 1.993a1.44 1.44 0 100 2.88 1.44 1.44 0 000-2.88zm-12.569 7.845a6.163 6.163 0 1112.326 0 6.163 6.163 0 01-12.326 0z" fill="#424242"/><path d="M22.501 19.253a4 4 0 110 8 4 4 0 010-8z" fill="#424242"/></svg>
